X: 25282
T: Man Of The House, The
R: reel
M: 4/4
K: Edorian
E2BE GABG|E2BG AFDB|E2BE GABe|dBBA BEED|
E2BE GABG|E2BG AFD2|EBBA GABc|dBcA BEE2||
efge f2af|gfed edBd|efge fedB|e2BA BEE2|
efge f2af|gfed edBd|bgaf gefd|e2BA GEFD||

